X: 1363
T: Molly Put the Kettle On   #2
R: reel
%S: s:2 b:16(6+6)
O: McNamara
B: O'Neill's 1850 #1363
Z: Trish O'Neil
Z: Compacted via repeats and multiple endings [JC]
M: C|
L: 1/8
K: Am
|: Bded cAAc | Bcdc BGG2 |\
[1 ceed cBAG | EDE^G A2A2 :|\
[2 cBcA B2AG | EDE^G A2A2 ||
|: Bde^f g2fg | aged cAA2 |\
[1 Bde^f g2fg | age^g a2a2 :|\
[2 ceed cAAG | EDE^G A2A2 |]
